assets/svg/close.svg

<svg fill="none" height="24" viewBox="0 0 24 24" width="24" xmlns="http://www.w3.org/2000/svg"><path d="m17.3957 7.81286c.3338-.33374.3338-.87484 0-1.20857-.3337-.33374-.8748-.33374-1.2086 0l-3.48 3.48001c-.3905.3905-1.0237.3905-1.4142 0l-3.48004-3.48001c-.33374-.33374-.87484-.33374-1.20857 0-.33374.33373-.33374.87483 0 1.20857l3.48001 3.48004c.3905.3905.3905 1.0237 0 1.4142l-3.48001 3.48c-.33374.3338-.33374.8749 0 1.2086.33373.3338.87483.3338 1.20857 0l3.48004-3.48c.3905-.3905 1.0237-.3905 1.4142 0l3.48 3.48c.3338.3338.8749.3338 1.2086 0 .3338-.3337.3338-.8748 0-1.2086l-3.48-3.48c-.3905-.3905-.3905-1.0237 0-1.4142z" fill="#000"/></svg>

<svg width="24" height="24" viewBox="0 0 24 24" fill="none" xmlns="http://www.w3.org/2000/svg">
<g id="close_24px">
<path id="icon/navigation/close_24px" d="M17.3957 7.81286C17.7295 7.47912 17.7295 6.93802 17.3957 6.60429V6.60429C17.062 6.27055 16.5209 6.27055 16.1871 6.60429L12.7071 10.0843C12.3166 10.4748 11.6834 10.4748 11.2929 10.0843L7.81286 6.60429C7.47912 6.27055 6.93802 6.27055 6.60429 6.60429V6.60429C6.27055 6.93802 6.27055 7.47912 6.60429 7.81286L10.0843 11.2929C10.4748 11.6834 10.4748 12.3166 10.0843 12.7071L6.60429 16.1871C6.27055 16.5209 6.27055 17.062 6.60429 17.3957V17.3957C6.93802 17.7295 7.47912 17.7295 7.81286 17.3957L11.2929 13.9157C11.6834 13.5252 12.3166 13.5252 12.7071 13.9157L16.1871 17.3957C16.5209 17.7295 17.062 17.7295 17.3957 17.3957V17.3957C17.7295 17.062 17.7295 16.5209 17.3957 16.1871L13.9157 12.7071C13.5252 12.3166 13.5252 11.6834 13.9157 11.2929L17.3957 7.81286Z" fill="black" fill-opacity="1"/>
</g>
</svg>
